icons/cervical_cancer.svg

<svg width="48" height="48" viewBox="0 0 48 48" fill="none" xmlns="http://www.w3.org/2000/svg">
<path d="M35.5344 6H37.395C40.521 13.8479 42.1079 20.1062 42.1 25.8515C42.0923 31.4661 40.5624 36.5114 37.5956 42.0001H35.6139C38.806 36.3419 40.3781 31.3648 40.3857 25.8489C40.3933 20.288 38.8115 14.0907 35.5344 6Z" fill="black"/>
<path d="M10.8051 6H12.6657C9.38856 14.0907 7.80678 20.288 7.81442 25.8489C7.82199 31.3648 9.39413 36.3419 12.5862 42.0001H10.6045C7.63767 36.5114 6.10783 31.4661 6.10013 25.8515C6.09224 20.1062 7.67909 13.8479 10.8051 6Z" fill="black"/>
<path d="M23.243 31.5463V42H24.9573V31.5461L31.9793 24.1731L30.7671 22.9003L24.1 29.9006L17.433 22.9003L16.2208 24.1731L23.243 31.5463Z" fill="black"/>
<path fill-rule="evenodd" clip-rule="evenodd" d="M25.2532 16.3001L26.8345 14.4553C27.8858 13.2288 27.8388 11.353 26.7276 10.1862C26.3702 9.81093 25.8854 9.6001 25.38 9.6001H22.8202C22.3147 9.6001 21.8299 9.81093 21.4725 10.1862C20.3613 11.353 20.3144 13.2288 21.3656 14.4553L22.9469 16.3001L19.1772 20.698L20.4515 21.9022L24.1001 17.6455L27.7487 21.9022L29.0229 20.698L25.2532 16.3001ZM22.8202 11.4001C22.7694 11.4001 22.7206 11.4213 22.6847 11.459C22.2182 11.9488 22.1985 12.7363 22.6398 13.2511L24.1001 14.9547L25.5603 13.2511C26.0016 12.7363 25.9819 11.9488 25.5154 11.459C25.4795 11.4213 25.4308 11.4001 25.38 11.4001H22.8202Z" fill="black"/>
</svg>

<svg
  xmlns="http://www.w3.org/2000/svg"
  width="24"
  height="24"
  viewBox="0 0 24 24"
  fill="none"
  stroke="currentColor"
  stroke-width="2"
  stroke-linecap="round"
  stroke-linejoin="round"
>
  <path d="M35.534 6h1.861c3.126 7.848 4.713 14.106 4.705 19.852-.008 5.614-1.538 10.66-4.504 16.148h-1.982c3.192-5.658 4.764-10.635 4.772-16.151C40.393 20.288 38.81 14.09 35.534 6" />
  <path d="M10.805 6h1.86c-3.276 8.09-4.858 14.288-4.85 19.849.007 5.516 1.58 10.493 4.771 16.151h-1.982C7.639 36.511 6.108 31.466 6.1 25.852 6.092 20.106 7.68 13.848 10.805 6" />
  <path d="M23.243 31.546V42h1.714V31.546l7.022-7.373-1.212-1.273-6.667 7-6.667-7-1.212 1.273z" />
  <path
    fill-rule="evenodd"
    d="m25.253 16.3 1.581-1.845c1.052-1.226 1.005-3.102-.106-4.269A1.86 1.86 0 0 0 25.38 9.6h-2.56c-.505 0-.99.21-1.348.586-1.11 1.167-1.158 3.043-.106 4.27l1.58 1.844-3.769 4.398 1.274 1.204 3.65-4.257 3.648 4.257 1.274-1.204zm-2.433-4.9c-.05 0-.1.021-.135.059a1.35 1.35 0 0 0-.045 1.792l1.46 1.704 1.46-1.704a1.35 1.35 0 0 0-.045-1.792.19.19 0 0 0-.135-.059z"
    clip-rule="evenodd"
  />
</svg>
